X: 1
T: The Musical Priest
R: reel
M: 4/4
L: 1/8
K: Bmin
|:BA|FBBA B2Bd|cBAf ecBA|FBBA B2Bd|cBAc B2:||:Bc|d2dc dfed|(3cBA eA fAeA|dcBc defb|afec B2:||Bc|dBB2 bafb|afec ABce|dB B2 bafb|afec B2Bc|dB B2 bafb|afec ABce|dcBc defb|afec B2|


Tune 73	Setting 29039

